!!!SOCIAL_FUNCTION:	bird dance songs
!!!PDT:	1956
!!!OTL: No_116_Hinata_Dance_Song_(l).krn
!!!LANG: Non-Tone
!!!LING_GROUP: Muskogean
!!!REG: Florida
**kern
*staff1
=1-
*clefF4
*k[b-e-]
*M2/4
4r
8.r
16c\
=2!|:
8B-\L
16B-\L
16B-\JJ
8F\L
[8F\J
=3
4F\]
8F\
16r
16c\
=4
8B-\L
16B-\L
16B-\JJ
8B-\L
8c\J
=5
8G\L
[8G\J
8.G\L]
16c\Jk
=6
(16c\LL
16B-\)
16G\
32G\L
32A\JJJ
8F\L
8F\J
=7
4F\
8.F\
16r
=8||
*M3/4
12F\L
12F\
12C\J
4F\
8F\
8r
=9
12G\L
12F\
12D\J
4BB-/
8.BB-/L
16G/Jk
=10||
*M2/4
16.F\LL
32F\JK
8G\J
[4F\
=11
4F\]
8F\
8r
=12||
*M3/4
12F\L
12F\
12C\J
4F\
8F\
8r
=13
12F\L
12F\
12D\J
4BB-/
8.BB-/L
16c/Jk
==:|!
*-
